img/about/3.svg

<svg width="36" height="36" viewBox="0 0 36 36" fill="none" xmlns="http://www.w3.org/2000/svg">
<path d="M30.3069 34.6006H7.01614V3.69968C7.01614 2.1278 8.20463 0.862621 9.68067 0.862621H29.1759C29.7893 0.862621 30.3069 1.39936 30.3069 2.07029V34.6006Z" fill="white"/>
<path d="M29.7894 30.5751H7.36134V3.16292C7.36134 1.78273 8.5115 0.651737 9.93003 0.651737H28.6968C29.291 0.651737 29.7894 1.13097 29.7894 1.70605V30.5751Z" fill="#166D44"/>
<path d="M29.0607 0H9.5655C7.59105 0 6 1.59105 6 3.5655V32.6262C6 34.4856 7.51438 36 9.3738 36H29.2141C30.2492 36 31.0926 35.1566 31.0926 34.1214V2.03195C31.0926 0.900959 30.1725 0 29.0607 0ZM9.3738 31.0543H29.2907V31.7252H11.1565C10.6581 31.7252 10.2556 32.1278 10.2556 32.6262C10.2556 33.1246 10.6581 33.5272 11.1565 33.5272H29.2907V34.1406C29.2907 34.1789 29.2524 34.2173 29.2141 34.2173H9.3738C8.51118 34.2173 7.80192 33.508 7.80192 32.6454C7.80192 31.7827 8.51118 31.0543 9.3738 31.0543ZM9.5655 1.80192H29.0607C29.1949 1.80192 29.2907 1.89776 29.2907 2.03195V29.2524H9.3738C8.81789 29.2524 8.28115 29.3866 7.80192 29.6358V3.75719C7.80192 2.64537 8.54952 1.80192 9.5655 1.80192Z" fill="#051B10"/>
<path d="M17.0031 15.0287C17.0989 15.1629 17.1756 15.2779 17.2523 15.4121C17.3098 15.5079 17.3481 15.5846 17.4056 15.6805C17.444 15.7763 17.5015 15.8721 17.5398 15.968C17.5782 16.0638 17.6165 16.1597 17.6548 16.2747C17.674 16.3322 17.6932 16.3705 17.6932 16.4281C17.7123 16.5239 17.7507 16.6389 17.7699 16.7539C17.789 16.8114 17.789 16.8689 17.789 16.9265C17.8082 17.099 17.8274 17.2523 17.8274 17.444C17.8274 17.5015 17.8274 17.559 17.8274 17.6166C17.8082 18.0383 17.7315 18.46 17.559 18.9201C17.559 18.9201 17.0223 18.8626 16.3513 18.6134C16.313 18.5942 16.2746 18.5942 16.2555 18.575C15.9488 18.46 15.6037 18.2875 15.2778 18.0766C15.0861 17.9616 14.9136 17.8082 14.7411 17.6549C14.6644 17.5974 14.6069 17.5207 14.5302 17.4632C14.4919 17.4249 14.4727 17.3865 14.4344 17.3482C14.3769 17.2715 14.3002 17.1948 14.2427 17.1182C14.1852 17.0415 14.1277 16.9648 14.0702 16.8689C13.8976 16.6006 13.7635 16.313 13.6676 15.9872C13.3801 15.1054 13.3417 13.9744 13.7635 12.4983C13.7635 12.4983 14.8561 12.9392 15.9296 13.8402C16.0063 13.8977 16.083 13.9552 16.1405 14.0319C16.313 14.1852 16.5047 14.3769 16.658 14.5686C16.7539 14.7028 16.8881 14.8753 17.0031 15.0287Z" fill="white"/>
<path d="M19.7257 14.8946C19.6299 15.0288 19.534 15.1438 19.4382 15.2971C19.3807 15.393 19.3232 15.4888 19.2657 15.5847C19.2081 15.6805 19.1698 15.7764 19.1123 15.8722C19.074 15.9681 19.0165 16.0831 18.9781 16.1789C18.9589 16.2364 18.9398 16.2939 18.9206 16.3323C18.8823 16.4473 18.8631 16.5431 18.8248 16.6581C18.8056 16.7157 18.8056 16.7732 18.7864 16.8307C18.7481 17.0032 18.7289 17.1757 18.7289 17.3674C18.7289 17.4249 18.7289 17.4824 18.7289 17.5591C18.7289 18 18.7864 18.4601 18.9398 18.9585C18.9398 18.9585 19.4957 18.9393 20.2241 18.7093C20.2625 18.6901 20.3008 18.6901 20.3391 18.6709C20.6842 18.5559 21.0484 18.4026 21.3935 18.2109C21.5851 18.0958 21.796 17.9617 21.9877 17.8083C22.0644 17.7508 22.1411 17.6741 22.2177 17.6166C22.2561 17.5783 22.2944 17.5399 22.3327 17.5016C22.4094 17.4249 22.4669 17.3482 22.5436 17.2716C22.6203 17.1949 22.6778 17.099 22.7353 17.0224C22.927 16.754 23.0804 16.4665 23.2145 16.1214C23.5596 15.2204 23.6746 14.0319 23.3296 12.4601C23.3296 12.4601 22.1411 12.8626 20.9909 13.7252C20.9142 13.7827 20.8375 13.8403 20.7417 13.9169C20.55 14.0703 20.3391 14.2428 20.1666 14.4345C19.9941 14.5687 19.8599 14.722 19.7257 14.8946Z" fill="white"/>
<path d="M24.6903 11.4249L24.4795 10.4089L23.5018 10.7348C23.4443 10.754 22.2367 11.1757 20.8948 12.0575C20.4348 11.1373 19.7255 10.2556 18.8054 9.37376L18.0769 8.68367L17.4827 9.48878C17.4443 9.54629 16.6392 10.6581 16.045 12.23C14.8181 11.329 13.7063 10.869 13.6488 10.8498L12.7287 10.4664L12.4603 11.4249C11.9427 13.3035 11.9044 14.9329 12.3453 16.2939C12.4986 16.754 12.6903 17.1949 12.9587 17.5974C13.0354 17.7316 13.1312 17.8466 13.2079 17.9616C13.2846 18.0766 13.3804 18.1917 13.4763 18.3067C13.5146 18.3642 13.5721 18.4025 13.6296 18.46C13.7255 18.5559 13.8213 18.6709 13.9363 18.7476C14.1664 18.9584 14.4348 19.1693 14.7223 19.361C15.144 19.6485 15.6041 19.8786 16.1217 20.0703C16.1792 20.0894 16.2175 20.1086 16.275 20.1278C16.8501 20.3386 17.3293 20.4536 17.6552 20.492L17.6935 20.6262L18.4028 20.607C18.4028 20.607 18.422 20.607 18.4603 20.607L18.7095 20.6262L18.7287 20.5878C19.0546 20.5495 19.6105 20.4728 20.2431 20.2811C20.3006 20.2619 20.3389 20.2428 20.3964 20.2236C20.9332 20.0511 21.4316 19.821 21.8916 19.5527C22.1983 19.3802 22.4859 19.1885 22.7351 18.9584C22.8501 18.8626 22.9651 18.7667 23.0609 18.6709C23.1185 18.6134 23.176 18.575 23.2143 18.5175C23.3293 18.4025 23.4252 18.2875 23.521 18.1725C23.6169 18.0575 23.7127 17.9233 23.8086 17.8083C24.0961 17.4057 24.3453 16.9648 24.5178 16.4856C25.0546 15.0862 25.1121 13.3802 24.6903 11.4249ZM19.2271 16.8881C19.2271 16.869 19.2271 16.8498 19.2271 16.8306C19.2271 16.8115 19.2271 16.7923 19.2079 16.7731V16.754C19.2271 16.6964 19.2463 16.6389 19.2654 16.6006C19.3038 16.5048 19.3421 16.3897 19.3996 16.2939C19.4571 16.198 19.4955 16.083 19.553 15.9872C19.5913 15.9297 19.6296 15.853 19.668 15.7955C19.6488 15.8338 19.6488 15.8913 19.6296 15.9297C19.5721 16.1597 19.4763 16.3706 19.3804 16.6006C19.3421 16.6581 19.2846 16.7731 19.2271 16.8881ZM19.2079 13.4185C18.9971 13.6294 18.8054 13.8402 18.6137 14.0703L18.5945 14.0894C18.4795 14.2428 18.3645 14.3961 18.2494 14.5495C18.1919 14.4728 18.1536 14.3961 18.0961 14.3386L18.0769 14.3195C17.9236 14.1086 17.751 13.8786 17.5594 13.6677C17.521 13.6294 17.4827 13.591 17.4635 13.5527C17.4635 13.5143 17.4827 13.4952 17.4827 13.4568C17.521 13.361 17.5402 13.246 17.5785 13.1501C17.7894 12.4984 18.0769 11.9233 18.307 11.4824C18.8054 12.0575 19.1696 12.6134 19.3996 13.1885C19.3613 13.2651 19.2846 13.3418 19.2079 13.4185ZM15.4699 15.9105C15.4891 16.0639 15.5082 16.2172 15.5274 16.3706C15.5466 16.5239 15.5849 16.6773 15.6232 16.8306C15.6424 16.9073 15.6616 16.984 15.6808 17.0607C15.7191 17.214 15.7766 17.3674 15.8341 17.5207C15.8725 17.5974 15.8916 17.6741 15.93 17.7508C15.9875 17.8849 16.0641 18.0191 16.1408 18.1533C15.9875 18.0766 15.8341 17.9808 15.6999 17.8849C15.4891 17.7508 15.3165 17.5974 15.144 17.4441C15.0673 17.3865 15.0098 17.3099 14.9332 17.2332C14.8948 17.1949 14.8756 17.1565 14.8373 17.1182C14.7606 17.0415 14.7031 16.9648 14.6456 16.8881C14.5881 16.8115 14.5306 16.7156 14.4731 16.6389C14.3006 16.3706 14.1664 16.0639 14.0514 15.738C13.8022 14.952 13.7638 14.0319 13.9363 12.9968C14.3772 13.246 14.914 13.591 15.4316 14.0319C15.4699 14.0702 15.5082 14.0894 15.5466 14.1278C15.5082 14.3578 15.4891 14.5687 15.4699 14.7987C15.4507 15.0287 15.4507 15.2396 15.4507 15.4696C15.4316 15.6038 15.4507 15.7572 15.4699 15.9105ZM20.9907 17.3099C21.1248 17.0032 21.259 16.6964 21.3357 16.3897C21.374 16.2556 21.4124 16.1214 21.4316 15.9872C21.4507 15.9105 21.4507 15.853 21.4699 15.7763C21.4891 15.623 21.5082 15.4888 21.5274 15.3354C21.5466 15.1821 21.5466 15.0287 21.5466 14.8945C21.5466 14.5495 21.5274 14.2236 21.4699 13.8786C22.0258 13.476 22.6009 13.1501 23.0609 12.9201C23.176 14.0319 23.0801 15.0095 22.7734 15.8147C22.6392 16.1405 22.4859 16.4472 22.275 16.7348C22.2175 16.8306 22.1408 16.9073 22.0833 16.984C22.0258 17.0607 21.9491 17.1373 21.8725 17.214C21.8341 17.2524 21.7958 17.2907 21.7574 17.329C21.6808 17.4057 21.6041 17.4632 21.5274 17.5399C21.3357 17.6933 21.1248 17.8274 20.914 17.9616C20.7798 18.0383 20.6456 18.115 20.4923 18.1725C20.7031 17.8849 20.8565 17.5974 20.9907 17.3099Z" fill="#051B10"/>
<path d="M16.7735 14.8178C16.7543 14.9712 16.7543 15.1245 16.7543 15.2779C16.7543 15.3737 16.7543 15.4887 16.7735 15.5846C16.7735 15.6804 16.7926 15.7955 16.8118 15.8913C16.831 15.9871 16.8502 16.1022 16.8693 16.198C16.8885 16.2555 16.8885 16.2939 16.9077 16.3514C16.946 16.4472 16.9652 16.5622 17.0035 16.6581C17.0227 16.7156 17.0418 16.7539 17.061 16.8114C17.1377 16.9648 17.2144 17.1181 17.291 17.2715C17.3294 17.329 17.3486 17.3673 17.3869 17.4248C17.6169 17.7699 17.9236 18.0958 18.307 18.4025C18.307 18.4025 18.7287 18.0766 19.1888 17.5015C19.208 17.4824 19.2271 17.444 19.2655 17.4057C19.4763 17.1373 19.668 16.8306 19.8406 16.4664C19.9364 16.2747 20.0131 16.0447 20.0898 15.8338C20.1089 15.7379 20.1473 15.6613 20.1664 15.5654C20.1856 15.5271 20.1856 15.4696 20.1856 15.4312C20.2048 15.3354 20.224 15.2395 20.224 15.1437C20.2431 15.0478 20.2431 14.952 20.2431 14.837C20.2431 14.5303 20.224 14.2044 20.1281 13.8785C19.9172 12.9776 19.3422 11.9999 18.2303 10.9456C18.2303 10.9456 17.5211 11.9041 17.0802 13.2076C17.0418 13.3034 17.0227 13.3801 16.9843 13.476C16.9077 13.706 16.8502 13.9552 16.8118 14.2044C16.8118 14.4153 16.7926 14.6261 16.7735 14.8178Z" fill="white"/>
</svg>

<svg width="36" height="36" fill="none" xmlns="http://www.w3.org/2000/svg"><path d="M30.307 34.6H7.017V3.7C7.017 2.128 8.205.863 9.68.863h19.495c.614 0 1.131.536 1.131 1.207V34.6z" fill="#fff"/><path d="M29.79 30.575H7.36V3.163c0-1.38 1.15-2.511 2.569-2.511h18.767c.594 0 1.092.479 1.092 1.054v28.87z" fill="#166D44"/><path d="M29.06 0H9.567A3.559 3.559 0 006 3.566v29.06A3.379 3.379 0 009.374 36h19.84a1.882 1.882 0 001.879-1.879V2.032C31.093.901 30.173 0 29.06 0zM9.375 31.054H29.29v.671H11.157a.9.9 0 100 1.802H29.29v.614c0 .038-.039.076-.077.076H9.374a1.579 1.579 0 01-1.572-1.572c0-.862.71-1.59 1.572-1.59zm.191-29.252h19.496c.134 0 .23.096.23.23v27.22H9.374c-.556 0-1.093.135-1.572.384V3.757c0-1.112.748-1.955 1.764-1.955z" fill="#051B10"/><path d="M17.003 15.029c.096.134.173.249.25.383.057.096.095.173.153.268.038.096.096.192.134.288.038.096.077.192.115.307.02.057.038.096.038.153.02.096.058.21.077.326a.53.53 0 01.02.172c.018.173.038.326.038.518v.173c-.02.421-.096.843-.269 1.303 0 0-.537-.057-1.208-.307-.038-.019-.076-.019-.095-.038a5.238 5.238 0 01-.978-.498 3.7 3.7 0 01-.537-.422c-.076-.058-.134-.134-.21-.192-.039-.038-.058-.076-.097-.115-.057-.076-.134-.153-.191-.23a2.683 2.683 0 01-.173-.249 3.363 3.363 0 01-.402-.882c-.288-.882-.326-2.013.096-3.489 0 0 1.092.441 2.166 1.342.076.058.153.115.21.192.173.153.365.345.518.537.096.134.23.306.345.46zm2.722-.134c-.096.134-.191.249-.287.402l-.173.288c-.057.095-.096.191-.153.287-.038.096-.096.211-.134.307-.02.057-.039.115-.058.153-.038.115-.057.211-.096.326-.019.058-.019.115-.038.173a2.427 2.427 0 00-.058.536v.192c0 .441.058.901.211 1.4 0 0 .556-.02 1.285-.25.038-.019.076-.019.115-.038a6.257 6.257 0 001.054-.46 5.37 5.37 0 00.594-.403c.077-.057.154-.134.23-.191l.115-.115c.077-.077.134-.154.211-.23.077-.077.134-.173.192-.25a4.02 4.02 0 00.48-.9c.344-.902.46-2.09.114-3.662 0 0-1.188.403-2.338 1.265a9.186 9.186 0 00-.25.192 4.828 4.828 0 00-.575.518 2.51 2.51 0 00-.44.46z" fill="#fff"/><path d="M24.69 11.425l-.21-1.016-.978.326a12.78 12.78 0 00-2.607 1.322c-.46-.92-1.17-1.802-2.09-2.683l-.728-.69-.594.805c-.039.057-.844 1.17-1.438 2.741-1.227-.901-2.339-1.361-2.396-1.38l-.92-.384-.269.959c-.517 1.878-.556 3.508-.115 4.869.154.46.345.9.614 1.303.076.135.172.25.249.365.076.115.172.23.268.345.039.057.096.096.154.153.095.096.191.21.306.288.23.21.499.421.786.613.422.287.882.517 1.4.71.057.018.095.038.153.057.575.21 1.054.326 1.38.364l.038.134.71-.019h.057l.25.02.019-.04a8.683 8.683 0 001.514-.306c.058-.02.096-.038.153-.057a7.559 7.559 0 001.496-.671c.306-.173.594-.364.843-.595.115-.095.23-.191.326-.287.057-.058.115-.096.153-.154.115-.114.211-.23.307-.345.096-.114.192-.249.287-.364.288-.402.537-.843.71-1.322.537-1.4.594-3.106.172-5.061zm-5.463 5.463v-.057c0-.02 0-.039-.02-.058v-.02a1.3 1.3 0 01.058-.152c.039-.096.077-.211.134-.307.058-.096.096-.211.154-.307.038-.057.077-.134.115-.191-.02.038-.02.095-.038.134-.058.23-.154.44-.25.67-.038.058-.095.173-.153.288zm-.02-3.47c-.21.211-.402.422-.593.652l-.02.02-.345.46c-.057-.077-.095-.154-.153-.211l-.02-.02a7.7 7.7 0 00-.517-.651c-.038-.039-.076-.077-.096-.115 0-.039.02-.058.02-.096.038-.096.057-.211.095-.307.211-.652.499-1.227.729-1.668.498.575.863 1.131 1.093 1.706a1.006 1.006 0 01-.192.23zm-3.737 2.493l.057.46c.02.153.058.306.096.46l.058.23c.038.153.096.306.153.46.038.076.058.153.096.23.057.134.134.268.21.402a3.37 3.37 0 01-.44-.268 4.31 4.31 0 01-.556-.441c-.077-.057-.134-.134-.21-.21-.04-.04-.058-.078-.097-.116a2.037 2.037 0 01-.191-.23c-.058-.077-.116-.172-.173-.25a4.326 4.326 0 01-.422-.9c-.249-.786-.287-1.706-.115-2.741a9.59 9.59 0 011.495 1.035c.039.038.077.057.116.096-.039.23-.058.44-.077.67-.02.23-.02.442-.02.672-.018.134 0 .287.02.44zm5.52 1.399c.135-.307.269-.614.346-.92a3.27 3.27 0 00.096-.403c.019-.076.019-.134.038-.21l.057-.442c.02-.153.02-.306.02-.44a6.1 6.1 0 00-.077-1.016 11.658 11.658 0 011.59-.959c.116 1.112.02 2.09-.287 2.895a4.272 4.272 0 01-.498.92c-.058.096-.134.172-.192.249a2.306 2.306 0 01-.21.23l-.116.115c-.076.077-.153.134-.23.21a6.944 6.944 0 01-.613.423c-.134.076-.268.153-.422.21.211-.287.364-.575.499-.862z" fill="#051B10"/><path d="M16.773 14.818c-.02.153-.02.306-.02.46 0 .096 0 .21.02.307 0 .095.02.21.038.306.02.096.039.211.058.307.02.058.02.096.038.153.039.096.058.211.096.307.02.058.038.096.058.153l.23.46c.038.058.057.096.096.154.23.345.536.67.92.977 0 0 .421-.325.881-.9.02-.02.039-.058.077-.096.211-.269.403-.575.575-.94.096-.191.173-.421.25-.632.018-.096.057-.173.076-.269.02-.038.02-.095.02-.134.018-.096.038-.191.038-.287.019-.096.019-.192.019-.307 0-.307-.02-.633-.115-.958-.211-.901-.786-1.88-1.898-2.933 0 0-.71.958-1.15 2.262-.039.095-.058.172-.096.268-.077.23-.134.48-.173.728 0 .211-.019.422-.038.614z" fill="#fff"/></svg>
